!!!SOCIAL_FUNCTION:	songs of war
!!!PDT:	1918

Specific Region: Dakotas, Minnesota, Montana, Nebraska
!!!REG: Dakotas and Montana
!!!LING_GROUP: Siouan
!!!LANG: Tone
!!!OTL@ENG: He Is Again Gone on the Warpath
!!!ONM: No. 153
**kern
*Imale
*clefF4
*k[f#c#g#d#a#e#]
*M2/4
*MM84
4c#
8.d#
16c#
=2
4c#
16d#
8.c#
=3||
*M3/4
16.A
32G#
8G#
2G#
=4
4A
16c#
16A
8A
8G#
8F#
=5
16G#
8.G#
16G#
8.F#
4C#
=6
8F#
8F#
16A#
16G#
8A#
8G#
8F#
=7
8G#
8G#
16A#
8.F#
8C#
8C#
=8||
*M2/4
2C#
=9||
*M3/4
2.C#
=10
*MM52
8c#
8c#
(24d#
24c#)
12c#
12c#
16c#
[16c#
8c#]
=11
32c#
16.c#
(32d#
16.c#)
(32d#
16.c#)
8A
(8.A
16G#)
=12||
*M2/4
2G#
=13||
*M3/4
*MM84
8A
8A
(16c#
16A)
8A
8G#
8F#
=14
16G#
8.G#
8G#
8D#
4C#
=15
8F#
8F#
16A#
16G#
8A#
8G#
8F#
=16
8G#
8G#
16A#
8.F#
8C#
8C#
=17||
*M2/4
2C#
=18
4C#
4r
==
*-
!!!CNT: Native American -- Sioux
!!!MRD: 1911/07//-1914///
!!!OCL: Frances Densmore
!!!YOR1: Teton Sioux Music, Bulletin 61,
!!!YOR2: Bureau of American Ethnology, Smithsonian Institution
!!!PPR: Government Printing Office
!!!PPP: Washington, D.C.
!!!PDT: 1918///
!!!ENC: Craig Stuart Sapp
!!!END: 2002/03/25/
!!!EEV: 2002/03/31/
!!!AGN: War Song/Song of a Typical War Expedition
!!!MPN@@SIO: Shung'ka-lu'zahang
!!!MPN@ENG: Swift Dog
!!!TXO: Teton Sioux
!!!MLC: Standing Rock Reservation, South Dakota, United States of America
!!!ARL: 45.9/-100.7#
!!!catalog: Catalogue No. 591
!!!PPG: 373
!!!EFL: 158/245
!!!VTS: 2512140646
